symbols-de/shields/motorway_9x2.svg

<?xml version="1.0" encoding="UTF-8" standalone="no"?>
<svg
   xmlns:dc="http://purl.org/dc/elements/1.1/"
   xmlns:cc="http://creativecommons.org/ns#"
   xmlns:rdf="http://www.w3.org/1999/02/22-rdf-syntax-ns#"
   xmlns:svg="http://www.w3.org/2000/svg"
   xmlns="http://www.w3.org/2000/svg"
   xmlns:sodipodi="http://sodipodi.sourceforge.net/DTD/sodipodi-0.dtd"
   xmlns:inkscape="http://www.inkscape.org/namespaces/inkscape"
   width="100%"
   height="100%"
   viewBox="0 0 63.0 24.0"
   id="svg2"
   version="1.1"
   inkscape:version="0.91 r13725"
   sodipodi:docname="autobahn_9x2.svg">
  <metadata
     id="metadata9">
    <rdf:RDF>
      <cc:Work
         rdf:about="">
        <dc:format>image/svg+xml</dc:format>
        <dc:type
           rdf:resource="http://purl.org/dc/dcmitype/StillImage" />
        <dc:title></dc:title>
      </cc:Work>
    </rdf:RDF>
  </metadata>
  <defs
     id="defs7" />
  <sodipodi:namedview
     pagecolor="#ffffff"
     bordercolor="#666666"
     borderopacity="1"
     objecttolerance="10"
     gridtolerance="10"
     guidetolerance="10"
     inkscape:pageopacity="0"
     inkscape:pageshadow="2"
     inkscape:window-width="995"
     inkscape:window-height="676"
     id="namedview5"
     showgrid="false"
     inkscape:zoom="5.6031746"
     inkscape:cx="31.5"
     inkscape:cy="12"
     inkscape:window-x="554"
     inkscape:window-y="165"
     inkscape:window-maximized="0"
     inkscape:current-layer="svg2" />
  <path
     style="fill:#365eaf;fill-opacity:1;stroke:#0528a2;stroke-width:1;stroke-miterlimit:4;stroke-dasharray:none;stroke-opacity:1"
     d="m 31.5,0.4999982 c -0.444442,0 -0.666016,0.0033 -0.666016,0.01172 L 1.501353,2.2812492 C 0.834683,2.3660992 0.5,2.4943612 0.5,2.6640612 c 0,6.223959 0,12.4479178 0,18.6718758 0,0.1697 0.334683,0.297965 1.001353,0.382812 l 29.332631,1.769531 c 0,0.0085 0.221579,0.01172 0.666016,0.01172 0.444445,0 0.666016,-0.0033 0.666016,-0.01172 l 29.332632,-1.769531 c 0.666669,-0.08485 1.001353,-0.213113 1.001353,-0.382812 0,-6.223959 0,-12.4479168 0,-18.6718758 0,-0.1697 -0.334684,-0.297965 -1.001353,-0.382812 L 32.166016,0.5117182 c 0,-0.0085 -0.221578,-0.01172 -0.666016,-0.01172 z"
     id="path6"
     inkscape:connector-curvature="0"
     sodipodi:nodetypes="sccccccsccccccs" />
</svg>

<?xml version="1.0" encoding="UTF-8"?>
<svg xmlns="http://www.w3.org/2000/svg" xmlns:xlink="http://www.w3.org/1999/xlink" width="65pt" height="30pt" viewBox="0 0 65 30" version="1.1">
<g id="surface1">
<path style="fill-rule:nonzero;fill:rgb(21.176471%,36.862745%,68.627451%);fill-opacity:1;stroke-width:1;stroke-linecap:butt;stroke-linejoin:miter;stroke:rgb(1.960784%,15.686275%,63.529412%);stroke-opacity:1;stroke-miterlimit:4;" d="M 31.5 0.5 C 31.057031 0.5 30.833654 0.503125 30.833654 0.5125 L 1.503065 2.28125 C 0.832933 2.365625 0.49976 2.49375 0.49976 2.6625 C 0.49976 8.8875 0.49976 15.1125 0.49976 21.334375 C 0.49976 21.50625 0.832933 21.634375 1.503065 21.71875 L 30.833654 23.4875 C 30.833654 23.496875 31.057031 23.5 31.5 23.5 C 31.942969 23.5 32.166346 23.496875 32.166346 23.4875 L 61.496935 21.71875 C 62.167067 21.634375 62.50024 21.50625 62.50024 21.334375 C 62.50024 15.1125 62.50024 8.8875 62.50024 2.6625 C 62.50024 2.49375 62.167067 2.365625 61.496935 2.28125 L 32.166346 0.5125 C 32.166346 0.503125 31.942969 0.5 31.5 0.5 Z M 31.5 0.5 " transform="matrix(1.031746,0,0,1.25,0,0)"/>
</g>
</svg>
